icons/behance-fill.svg

<svg xmlns="http://www.w3.org/2000/svg" width="24" height="24" fill="none"><g clip-path="url(#a)"><g><path fill="#121212" d="M7.443 5.34998C8.082 5.34998 8.673 5.39998 9.213 5.54798C9.70301 5.63802 10.1708 5.82281 10.59 6.09198C10.984 6.33898 11.279 6.68598 11.475 7.13098C11.672 7.57598 11.77 8.12098 11.77 8.71398C11.77 9.40698 11.623 9.99998 11.279 10.445C10.984 10.891 10.492 11.286 9.902 11.583C10.738 11.831 11.377 12.276 11.77 12.869C12.164 13.463 12.41 14.205 12.41 15.046C12.41 15.739 12.262 16.332 12.016 16.827C11.77 17.322 11.377 17.767 10.934 18.064C10.4528 18.3823 9.92084 18.6164 9.361 18.756C8.771 18.905 8.181 19.004 7.591 19.004H1V5.34998H7.443ZM7.049 10.89C7.59 10.89 8.033 10.742 8.377 10.495C8.721 10.248 8.869 9.80198 8.869 9.25798C8.869 8.96098 8.819 8.66398 8.721 8.46698C8.623 8.26898 8.475 8.11998 8.279 7.97198C8.082 7.87298 7.885 7.77398 7.639 7.72498C7.393 7.67498 7.148 7.67498 6.852 7.67498H4V10.891H7.05L7.049 10.89ZM7.197 16.728C7.492 16.728 7.787 16.678 8.033 16.629C8.28137 16.5817 8.51628 16.4803 8.721 16.332C8.92138 16.1872 9.08903 16.0018 9.213 15.788C9.311 15.541 9.41 15.244 9.41 14.898C9.41 14.205 9.213 13.71 8.82 13.364C8.426 13.067 7.885 12.919 7.246 12.919H4V16.729H7.197V16.728ZM16.689 16.678C17.082 17.074 17.672 17.272 18.459 17.272C19 17.272 19.492 17.124 19.885 16.877C20.279 16.58 20.525 16.283 20.623 15.986H23.033C22.639 17.173 22.049 18.014 21.263 18.558C20.475 19.053 19.541 19.35 18.41 19.35C17.6864 19.3522 16.9688 19.2178 16.295 18.954C15.6887 18.7265 15.148 18.3528 14.721 17.866C14.2643 17.4106 13.9267 16.8497 13.738 16.233C13.492 15.59 13.393 14.898 13.393 14.106C13.393 13.364 13.492 12.672 13.738 12.028C13.9745 11.4081 14.3245 10.8377 14.77 10.346C15.213 9.90098 15.754 9.50598 16.344 9.25798C17.0007 8.99404 17.7022 8.85957 18.41 8.86198C19.246 8.86198 19.984 9.01098 20.623 9.35698C21.263 9.70298 21.754 10.099 22.148 10.693C22.5499 11.2635 22.8494 11.8997 23.033 12.573C23.131 13.265 23.18 13.958 23.131 14.749H16C16 15.541 16.295 16.283 16.689 16.679V16.678ZM19.787 11.484C19.443 11.138 18.902 10.94 18.262 10.94C17.82 10.94 17.475 11.039 17.18 11.187C16.885 11.336 16.689 11.534 16.492 11.732C16.311 11.9232 16.1912 12.1642 16.148 12.424C16.098 12.672 16.049 12.869 16.049 13.067H20.475C20.377 12.325 20.131 11.831 19.787 11.484ZM15.459 6.28998H20.967V7.62598H15.46V6.28998H15.459Z"/></g></g><defs><clipPath id="a"><rect width="24" height="24" fill="white"/></clipPath></defs></svg>

<svg width="24" height="24" fill="none" xmlns="http://www.w3.org/2000/svg"><g clip-path="url(#a)"><path d="M7.443 5.35c.639 0 1.23.05 1.77.198.49.09.958.275 1.377.544.394.247.689.594.885 1.039.197.445.295.99.295 1.583 0 .693-.147 1.286-.491 1.731-.295.446-.787.841-1.377 1.138.836.248 1.475.693 1.868 1.286.394.594.64 1.336.64 2.177 0 .693-.148 1.286-.394 1.781-.246.495-.639.94-1.082 1.237a5.079 5.079 0 0 1-1.573.692c-.59.149-1.18.248-1.77.248H1V5.35h6.443Zm-.394 5.54c.541 0 .984-.148 1.328-.395.344-.247.492-.693.492-1.237 0-.297-.05-.594-.148-.791-.098-.198-.246-.347-.442-.495-.197-.099-.394-.198-.64-.247-.246-.05-.491-.05-.787-.05H4v3.216h3.05l-.001-.001Zm.148 5.838c.295 0 .59-.05.836-.099.248-.047.483-.149.688-.297.2-.145.368-.33.492-.544.098-.247.197-.544.197-.89 0-.693-.197-1.188-.59-1.534-.394-.297-.935-.445-1.574-.445H4v3.81h3.197v-.001Zm9.492-.05c.393.396.983.594 1.77.594.541 0 1.033-.148 1.426-.395.394-.297.64-.594.738-.891h2.41c-.394 1.187-.984 2.028-1.77 2.572-.788.495-1.722.792-2.853.792a5.754 5.754 0 0 1-2.115-.396 3.93 3.93 0 0 1-1.574-1.088 3.93 3.93 0 0 1-.983-1.633c-.246-.643-.345-1.335-.345-2.127 0-.742.099-1.434.345-2.078a5.34 5.34 0 0 1 1.032-1.682c.443-.445.984-.84 1.574-1.088a5.49 5.49 0 0 1 2.066-.396c.836 0 1.574.149 2.213.495.64.346 1.131.742 1.525 1.336a6.01 6.01 0 0 1 .885 1.88c.098.692.147 1.385.098 2.176H16c0 .792.295 1.534.689 1.93v-.001Zm3.098-5.194c-.344-.346-.885-.544-1.525-.544a2.34 2.34 0 0 0-1.082.247c-.295.149-.491.347-.688.545-.181.191-.3.432-.344.692-.05.248-.099.445-.099.643h4.426c-.098-.742-.344-1.236-.688-1.583ZM15.459 6.29h5.508v1.336H15.46V6.29h-.001Z" /></g><defs><clipPath id="a"><path fill="#fff" d="M0 0h24v24H0z"/></clipPath></defs></svg>
